ui/StatusQ/src/assets/img/icons/tiny/message/delivered.svg

<svg fill="none" height="17" viewBox="0 0 16 17" width="16" xmlns="http://www.w3.org/2000/svg"><g fill="#000"><path d="m13.7774 4.08403c.2297.15317.2918.46361.1386.69337l-4.99997 7.5c-.08682.1302-.22964.2123-.38588.2217-.15625.0095-.3079-.0548-.40977-.1737l-3-3.49995c-.17971-.20966-.15543-.52531.05423-.70503.20967-.17971.52532-.15543.70503.05424l2.39864 2.79844c.08625.1006.24475.091.31827-.0192l4.48745-6.7312c.1532-.22976.4636-.29185.6934-.13867z"/><path d="m8.54225 8.33804c-.18379.27568-.58003.29961-.79566.04805-.14578-.17008-.16065-.41637-.03639-.60275l2.3738-3.56064c.1531-.22976.4636-.29185.6933-.13867.2298.15317.2919.46361.1387.69337z"/><path d="m2.87964 8.17461c-.17971-.20966-.49536-.23394-.70503-.05423-.20966.17971-.23394.49536-.05423.70502l3 3.5c.17971.2097.49536.2339.70502.0542.20967-.1797.23395-.4953.05424-.705z"/></g></svg>

<svg width="16" height="17" viewBox="0 0 16 17" fill="none" xmlns="http://www.w3.org/2000/svg">
<path d="M13.7774 4.08403C14.0071 4.2372 14.0692 4.54764 13.916 4.7774L8.91603 12.2774C8.82921 12.4076 8.68639 12.4897 8.53015 12.4991C8.3739 12.5086 8.22225 12.4443 8.12038 12.3254L5.12038 8.82545C4.94067 8.61579 4.96495 8.30014 5.17461 8.12042C5.38428 7.94071 5.69993 7.96499 5.87964 8.17466L8.27828 10.9731C8.36453 11.0737 8.52303 11.0641 8.59655 10.9539L13.084 4.2227C13.2372 3.99294 13.5476 3.93085 13.7774 4.08403Z" fill="black"/>
<path d="M8.54225 8.33804C8.35846 8.61372 7.96222 8.63765 7.74659 8.38609C7.60081 8.21601 7.58594 7.96972 7.7102 7.78334L10.084 4.2227C10.2371 3.99294 10.5476 3.93085 10.7773 4.08403C11.0071 4.2372 11.0692 4.54764 10.916 4.7774L8.54225 8.33804Z" fill="black"/>
<path d="M2.87964 8.17461C2.69993 7.96495 2.38428 7.94067 2.17461 8.12038C1.96495 8.30009 1.94067 8.61574 2.12038 8.8254L5.12038 12.3254C5.30009 12.5351 5.61574 12.5593 5.8254 12.3796C6.03507 12.1999 6.05935 11.8843 5.87964 11.6746L2.87964 8.17461Z" fill="black"/>
</svg>
